X:7566
T:Timely Consent
O:england
M:10/8
C:Andy Hornby
A:Lancaster
K:DMix
|:d2B de f2d ag| f2d e2d e2f2| \
d2A de f2d ag| f2d e2d c2d2:|
|:a2a2 bag f2d| ege f2d f2g2| \
a2a2 bag f2d| ege f2d c2d2 :|
M:7/8
|:A2d2 cBA| GFG B2A2| DEF G2F2| E2D E2F2|\
A2d2 cBA| GFG B2A2| DEF G2F2| E3 D4:|
W:Copyright (C) Andy Hornby 25.12.97


